X: 24605
T: Mac Cabe
R: reel
M: 4/4
K: Dmajor
f2df ed (3Bcd|f2ed (3efg ag|f2df eBdB|ABdf ed (3Bcd|
f2df ed (3Bcd|f2ed fa a2|bf f2 afdB|ABdf efdB||
AFdF E3F|DEFD E3B|A2FB AFAB|defd efdB|
AFdF E3F|DEFD E3B|A2FB AFAB|defe d3e||

